src/assets/icons/ringing-notification-bell.svg

<svg fill="none" height="82" viewBox="0 0 82 82" width="82" xmlns="http://www.w3.org/2000/svg"><circle cx="41" cy="41" fill="#f2fbf9" r="41"/><path d="m52.668 49.6667v1.3333h-24v-1.3333l2.6666-2.6667v-8c0-4.1333 2.7067-7.7733 6.6667-8.9467 0-.1333 0-.2533 0-.3866 0-.7073.281-1.3856.7811-1.8857.5-.5 1.1783-.781 1.8856-.781.7072 0 1.3855.281 1.8856.781.5001.5001.781 1.1784.781 1.8857v.3866c3.96 1.1734 6.6667 4.8134 6.6667 8.9467v8zm-9.3334 2.6666c0 .7073-.2809 1.3856-.781 1.8857-.5001.5-1.1784.781-1.8856.781-.7073 0-1.3856-.281-1.8856-.781-.5001-.5001-.7811-1.1784-.7811-1.8857" fill="#16d2aa"/><g fill="#fedf85"><path d="m49.1055 30.4798 1.8933-1.8934c2.7867 2.7467 4.3333 6.5067 4.3333 10.4134h-2.6666c0-3.2-1.28-6.2667-3.56-8.52z"/><path d="m28.6667 38.9998h-2.6667c0-3.9067 1.5467-7.6667 4.3333-10.4134l1.8934 1.8934c-2.28 2.2533-3.56 5.32-3.56 8.52z"/></g></svg>

<svg width="82" height="82" viewBox="0 0 82 82" fill="none" xmlns="http://www.w3.org/2000/svg">
  <circle cx="41" cy="41" r="41" fill="#F2FBF9"/>
  <path d="M52.668 49.6667V51H28.668V49.6667L31.3346 47V39C31.3346 34.8667 34.0413 31.2267 38.0013 30.0533C38.0013 29.92 38.0013 29.8 38.0013 29.6667C38.0013 28.9594 38.2823 28.2811 38.7824 27.781C39.2824 27.281 39.9607 27 40.668 27C41.3752 27 42.0535 27.281 42.5536 27.781C43.0537 28.2811 43.3346 28.9594 43.3346 29.6667C43.3346 29.8 43.3346 29.92 43.3346 30.0533C47.2946 31.2267 50.0013 34.8667 50.0013 39V47L52.668 49.6667ZM43.3346 52.3333C43.3346 53.0406 43.0537 53.7189 42.5536 54.219C42.0535 54.719 41.3752 55 40.668 55C39.9607 55 39.2824 54.719 38.7824 54.219C38.2823 53.7189 38.0013 53.0406 38.0013 52.3333" fill="#16D2AA"/>
  <path d="M49.1055 30.4798L50.9988 28.5864C53.7855 31.3331 55.3321 35.0931 55.3321 38.9998H52.6655C52.6655 35.7998 51.3855 32.7331 49.1055 30.4798Z" fill="#FEDF85"/>
  <path d="M28.6667 38.9998H26C26 35.0931 27.5467 31.3331 30.3333 28.5864L32.2267 30.4798C29.9467 32.7331 28.6667 35.7998 28.6667 38.9998Z" fill="#FEDF85"/>
</svg>
